X: 309
T:Swine Jig
% Nottingham Music Database
S:Trad, arr Phil Rowe
M:6/8
K:G
dc|"G"B2d GAB|"C"c2e "D7"ABc|"G"B2d BAG|"D7"A3 -Adc|
"G"B2d GAB|"C"c2e gfe|"A7"e2d ^cde|"D"d3 -d::
gf|"C"e2c e2c|"C"cde "G"d3|Bcd c2B|"D7"A3 -Adc|
"G"B2d GAB|"C"c2e "Am"ABc|"D"B2c "D7"ABA|"G"G3 -G:|<end>
<start>
